data/styles/clear/style-night/symbols/motorcycle_shop-m.svg

<svg height="24" viewBox="0 0 24 24" width="24"><g fill="none" fill-rule="evenodd"><circle cx="12" cy="12" fill="#fff" opacity=".4" r="12"/><circle cx="12" cy="12" fill="#4e3552" r="11"/><path d="m13.9807825 8.75620566-.0004114-.00201265.4355631-.9188843c-.6374511-.34938028-1.9123535-1.04814085-1.9123535-1.04814085l.0215332-.78716786.8524164.2883112c1.03672.35064792 2.302762 1.42942689 2.8129952 2.40451828l1.0146991 1.93916142-.0064941.8814267-1.0347217.9530231c.1490749-.030376.3034609-.0463264.4616441-.0463264h.0820275c1.2660132 0 2.2923196 1.016425 2.2923196 2.2899428 0 1.2647006-1.0241198 2.2899429-2.2923196 2.2899429h-.0820275c-1.1386048 0-2.0833221-.8221385-2.2619383-1.9140375l-4.71714985-.682327c.01325851.1001506.02010192.202429.02010192.3064216 0 1.2647006-1.02411981 2.2899429-2.29231959 2.2899429h-.08202749c-1.26601315 0-2.29231959-1.0164251-2.29231959-2.2899429 0-1.2647005 1.0241198-2.2899428 2.29231959-2.2899428h.08202749c.01320036 0 .02637467.0001105.03952202.0003306l-1.93364449-2.71863149.03431216-.06067939c.26382459-.46656105.93119605-.8003103 1.47712022-.72158344l4.53141581.65346831c.5411357.07803633.7892412.54576121.5434637 1.04315041l-.4450196.9006027 1.8973145.0286243.8367187-.9558946-.1875209-.91731889h-.3161613c-.2495597 0-.4518679-.21244588-.4518679-.45798858 0-.2529401.199766-.45798857.4518679-.45798857zm-7.5807825 5.95385144c0 .5094071.40807459.9159772.91146011.9159772h.04374644c.49718628 0 .91146012-.410097.91146012-.9159772 0-.5094071-.4080746-.9159771-.91146012-.9159771h-.04374644c-.49718628 0-.91146011.4100969-.91146011.9159771zm9.3333333 0c0 .5094071.4080746.9159772.9114601.9159772h.0437465c.4971863 0 .9114601-.410097.9114601-.9159772 0-.5094071-.4080746-.9159771-.9114601-.9159771h-.0437465c-.4971862 0-.9114601.4100969-.9114601.9159771z" fill="#fff" opacity=".6"/></g></svg>

<svg width="24" height="24" viewBox="0 0 24 24">
  <g fill="none" fill-rule="evenodd">
    <circle cx="12" cy="12" r="12" fill="#FFF" opacity=".4"/>
    <circle cx="12" cy="12" r="11" fill="#4E3551"/>
    <path fill="#FFF" d="M13.9807825,8.75620566 L13.9803711,8.75419301 L14.4159342,7.83530871 C13.7784831,7.48592843 12.5035807,6.78716786 12.5035807,6.78716786 L12.5251139,6 L13.3775303,6.2883112 C14.4142503,6.63895912 15.6802923,7.71773809 16.1905255,8.69282948 L17.2052246,10.6319909 L17.1987305,11.5134176 L16.1640088,12.4664407 C16.3130837,12.4360647 16.4674697,12.4201143 16.6256529,12.4201143 L16.7076804,12.4201143 C17.9736936,12.4201143 19,13.4365393 19,14.7100571 C19,15.9747577 17.9758802,17 16.7076804,17 L16.6256529,17 C15.4870481,17 14.5423308,16.1778615 14.3637146,15.0859625 L9.64656475,14.4036355 C9.65982326,14.5037861 9.66666667,14.6060645 9.66666667,14.7100571 C9.66666667,15.9747577 8.64254686,17 7.37434708,17 L7.29231959,17 C6.02630644,17 5,15.9835749 5,14.7100571 C5,13.4453566 6.0241198,12.4201143 7.29231959,12.4201143 L7.37434708,12.4201143 C7.38754744,12.4201143 7.40072175,12.4202248 7.4138691,12.4204449 L5.48022461,9.70181341 L5.51453677,9.64113402 C5.77836136,9.17457297 6.44573282,8.84082372 6.99165699,8.91955058 L11.5230728,9.57301889 C12.0642085,9.65105522 12.312314,10.1187801 12.0665365,10.6161693 L11.6215169,11.516772 L13.5188314,11.5453963 L14.3555501,10.5895017 L14.1680292,9.67218281 L13.8518679,9.67218281 C13.6023082,9.67218281 13.4,9.45973693 13.4,9.21419423 C13.4,8.96125413 13.599766,8.75620566 13.8518679,8.75620566 L13.9807825,8.75620566 Z M6.4,14.7100571 C6.4,15.2194642 6.80807459,15.6260343 7.31146011,15.6260343 L7.35520655,15.6260343 C7.85239283,15.6260343 8.26666667,15.2159373 8.26666667,14.7100571 C8.26666667,14.20065 7.85859207,13.79408 7.35520655,13.79408 L7.31146011,13.79408 C6.81427383,13.79408 6.4,14.2041769 6.4,14.7100571 Z M15.7333333,14.7100571 C15.7333333,15.2194642 16.1414079,15.6260343 16.6447934,15.6260343 L16.6885399,15.6260343 C17.1857262,15.6260343 17.6,15.2159373 17.6,14.7100571 C17.6,14.20065 17.1919254,13.79408 16.6885399,13.79408 L16.6447934,13.79408 C16.1476072,13.79408 15.7333333,14.2041769 15.7333333,14.7100571 Z" opacity=".6"/>
  </g>
</svg>
